src/assets/icons/new-credit-card-vector.svg

<?xml version="1.0" encoding="UTF-8"?>
<svg fill="none" viewBox="0 0 50 50" xmlns="http://www.w3.org/2000/svg">
<g clip-path="url(#a)">
<path d="m25 48.75c13.117 0 23.75-10.633 23.75-23.75s-10.633-23.75-23.75-23.75-23.75 10.633-23.75 23.75 10.633 23.75 23.75 23.75z" stroke="#fff" stroke-width="2"/>
<path d="m39.226 20.842-9.2363-9.2362c-0.4976-0.4968-1.1719-0.7758-1.875-0.7758s-1.3774 0.279-1.875 0.7758l-14.634 14.64c-0.4967 0.4975-0.7757 1.1719-0.7757 1.875s0.279 1.3774 0.7757 1.875l1.1388 1.1387 7.6537 7.6538h-1.0587c-0.1611 0-0.3156 0.064-0.4296 0.1779-0.1139 0.1139-0.1779 0.2684-0.1779 0.4296 0 0.1611 0.064 0.3156 0.1779 0.4295 0.114 0.114 0.2685 0.178 0.4296 0.178h12.152c0.1611 0 0.3156-0.064 0.4296-0.178 0.1139-0.1139 0.1779-0.2684 0.1779-0.4295 0-0.1612-0.064-0.3157-0.1779-0.4296-0.114-0.1139-0.2685-0.1779-0.4296-0.1779h-6.4638l14.198-14.202c0.4954-0.497 0.7736-1.1701 0.7736-1.8719s-0.2782-1.3749-0.7736-1.8719zm-0.8588 2.885-14.64 14.639c-0.1327 0.1329-0.2903 0.2382-0.4639 0.3098-0.1735 0.0717-0.3596 0.1083-0.5474 0.1077-0.1875 5e-4 -0.3733-0.0362-0.5467-0.1078-0.1733-0.0717-0.3308-0.1769-0.4633-0.3097l-7.6712-7.6713 14.059-14.054c0.0592-0.0558 0.1066-0.1228 0.1394-0.1973 0.0328-0.0744 0.0503-0.1546 0.0516-0.2359 0.0012-0.0813-0.0139-0.162-0.0445-0.2373-0.0305-0.0754-0.0759-0.1438-0.1334-0.2013s-0.1259-0.1029-0.2013-0.1334c-0.0753-0.0306-0.1561-0.0457-0.2374-0.0445s-0.1615 0.0187-0.2359 0.0515-0.1415 0.0802-0.1972 0.1394l-14.059 14.058-0.71-0.71c-0.2672-0.2695-0.4171-0.6336-0.4171-1.0131s0.1499-0.7437 0.4171-1.0131l14.639-14.638c0.2695-0.2673 0.6336-0.4172 1.0131-0.4172s0.7437 0.1499 1.0131 0.4172l3.2875 3.2875-14.06 14.059c-0.1083 0.115-0.1675 0.2677-0.1652 0.4256 0.0024 0.158 0.0662 0.3088 0.1779 0.4205s0.2625 0.1755 0.4205 0.1779c0.1579 0.0023 0.3106-0.0569 0.4256-0.1652l14.06-14.059 5.0887 5.0888c0.2687 0.2686 0.4197 0.6329 0.4199 1.0128 3e-4 0.3799-0.1503 0.7444-0.4186 1.0134z" fill="#fff"/>
<path d="m25.804 28.383c-0.1139-0.1138-0.2683-0.1777-0.4294-0.1777-0.161 0-0.3154 0.0639-0.4293 0.1777l-4.7813 4.7813c-0.114 0.1138-0.1781 0.2684-0.1783 0.4295-1e-4 0.1612 0.0638 0.3158 0.1777 0.4298 0.1139 0.1141 0.2684 0.1782 0.4296 0.1783 0.1611 2e-4 0.3157-0.0637 0.4298-0.1776l4.7812-4.7813c0.0566-0.0564 0.1014-0.1234 0.132-0.1972s0.0464-0.1529 0.0464-0.2328c0-0.0798-0.0158-0.159-0.0464-0.2327-0.0306-0.0738-0.0754-0.1408-0.132-0.1973z" fill="#fff"/>
<path d="m23.843 32.92-1.9613 1.9612c-0.114 0.1139-0.1782 0.2684-0.1783 0.4296s0.0638 0.3158 0.1777 0.4298c0.1139 0.1141 0.2684 0.1782 0.4295 0.1783 0.1612 1e-4 0.3158-0.0638 0.4299-0.1777l1.9612-1.9612c0.1083-0.115 0.1676-0.2677 0.1652-0.4256-0.0023-0.158-0.0661-0.3088-0.1778-0.4205s-0.2626-0.1755-0.4205-0.1779c-0.158-0.0023-0.3106 0.0569-0.4256 0.1652v-0.0012z" fill="#fff"/>
<path d="m25.648 31.116-0.2575 0.2574c-0.0592 0.0558-0.1066 0.1228-0.1394 0.1972s-0.0503 0.1547-0.0515 0.236 0.0139 0.162 0.0444 0.2374c0.0306 0.0753 0.076 0.1437 0.1334 0.2012 0.0575 0.0575 0.126 0.1029 0.2013 0.1335 0.0754 0.0305 0.1561 0.0456 0.2374 0.0444s0.1615-0.0187 0.2359-0.0515 0.1415-0.0802 0.1972-0.1394l0.2575-0.2575c0.1084-0.115 0.1676-0.2677 0.1652-0.4256-0.0023-0.158-0.0661-0.3088-0.1778-0.4205s-0.2625-0.1755-0.4205-0.1779c-0.1579-0.0023-0.3106 0.0569-0.4256 0.1653z" fill="#fff"/>
<path d="m34.02 20.164c-0.114-0.1138-0.2684-0.1778-0.4294-0.1778s-0.3155 0.064-0.4294 0.1778l-2.5775 2.5775c-0.1138 0.1139-0.1778 0.2683-0.1778 0.4294 0 0.161 0.064 0.3154 0.1778 0.4293l1.7188 1.7188c0.1139 0.1138 0.2683 0.1777 0.4293 0.1777 0.1611 0 0.3155-0.0639 0.4294-0.1777l2.5775-2.5775c0.1138-0.1139 0.1777-0.2684 0.1777-0.4294s-0.0639-0.3155-0.1777-0.4294l-1.7187-1.7187zm-1.2888 3.8662-0.8587-0.8587 1.7187-1.7188 0.8588 0.8588-1.7188 1.7187z" fill="#fff"/>
<path d="m29.082 15.4c0.0798 2e-4 0.1589-0.0153 0.2327-0.0458s0.1409-0.0752 0.1973-0.1317l0.2575-0.2575c0.1139-0.1141 0.1778-0.2687 0.1777-0.4298-2e-4 -0.1612-0.0643-0.3157-0.1783-0.4296-0.1141-0.1139-0.2687-0.1778-0.4298-0.1777-0.1612 2e-4 -0.3157 0.0643-0.4296 0.1783l-0.2575 0.2575c-0.0851 0.085-0.1432 0.1933-0.1667 0.3113-0.0235 0.1179-0.0114 0.2402 0.0346 0.3513 0.0461 0.1111 0.1241 0.2061 0.2241 0.2728 0.1001 0.0668 0.2177 0.1023 0.338 0.1021v-0.0012z" fill="#fff"/>
<path d="m16.941 31.229-0.2575 0.2575c-0.1141 0.1139-0.1782 0.2684-0.1783 0.4295-1e-4 0.1612 0.0638 0.3158 0.1777 0.4299 0.1138 0.114 0.2683 0.1781 0.4295 0.1783 0.1612 1e-4 0.3158-0.0638 0.4298-0.1777l0.2575-0.2575c0.0592-0.0558 0.1066-0.1228 0.1394-0.1972s0.0503-0.1546 0.0515-0.2359-0.0139-0.1621-0.0444-0.2374c-0.0306-0.0754-0.0759-0.1438-0.1334-0.2013s-0.126-0.1029-0.2013-0.1334c-0.0754-0.0306-0.1561-0.0457-0.2374-0.0445s-0.1615 0.0188-0.2359 0.0516-0.1415 0.0801-0.1972 0.1393v-0.0012z" fill="#fff"/>
</g>
<defs>
<clipPath id="a">
<rect width="50" height="50" fill="#fff"/>
</clipPath>
</defs>
</svg>

<svg width="50" height="50" viewBox="0 0 50 50" fill="none" xmlns="http://www.w3.org/2000/svg">
<g clip-path="url(#clip0_514_224)">
<path d="M25 48.75C38.1168 48.75 48.75 38.1168 48.75 25C48.75 11.8832 38.1168 1.25 25 1.25C11.8832 1.25 1.25 11.8832 1.25 25C1.25 38.1168 11.8832 48.75 25 48.75Z" stroke="white" stroke-width="2"/>
<path d="M39.2264 20.8421L29.9901 11.6059C29.4925 11.1091 28.8182 10.8301 28.1151 10.8301C27.412 10.8301 26.7377 11.1091 26.2401 11.6059L11.6063 26.2459C11.1096 26.7434 10.8306 27.4178 10.8306 28.1209C10.8306 28.824 11.1096 29.4983 11.6063 29.9959L12.7451 31.1346L20.3988 38.7884H19.3401C19.179 38.7884 19.0245 38.8524 18.9105 38.9663C18.7966 39.0802 18.7326 39.2347 18.7326 39.3959C18.7326 39.557 18.7966 39.7115 18.9105 39.8254C19.0245 39.9394 19.179 40.0034 19.3401 40.0034H31.4926C31.6537 40.0034 31.8082 39.9394 31.9222 39.8254C32.0361 39.7115 32.1001 39.557 32.1001 39.3959C32.1001 39.2347 32.0361 39.0802 31.9222 38.9663C31.8082 38.8524 31.6537 38.7884 31.4926 38.7884H25.0288L39.2264 24.5859C39.7218 24.0889 40 23.4158 40 22.714C40 22.0122 39.7218 21.3391 39.2264 20.8421ZM38.3676 23.7271L23.7276 38.3659C23.5949 38.4988 23.4373 38.6041 23.2637 38.6757C23.0902 38.7474 22.9041 38.784 22.7163 38.7834C22.5288 38.7839 22.343 38.7472 22.1696 38.6756C21.9963 38.6039 21.8388 38.4987 21.7063 38.3659L14.0351 30.6946L28.0938 16.6409C28.153 16.5851 28.2004 16.5181 28.2332 16.4436C28.266 16.3692 28.2835 16.289 28.2848 16.2077C28.286 16.1264 28.2709 16.0457 28.2403 15.9704C28.2098 15.895 28.1644 15.8266 28.1069 15.7691C28.0494 15.7116 27.981 15.6662 27.9056 15.6357C27.8303 15.6051 27.7495 15.59 27.6682 15.5912C27.5869 15.5924 27.5067 15.6099 27.4323 15.6427C27.3579 15.6755 27.2908 15.7229 27.2351 15.7821L13.1763 29.8396L12.4663 29.1296C12.1991 28.8601 12.0492 28.496 12.0492 28.1165C12.0492 27.737 12.1991 27.3728 12.4663 27.1034L27.1051 12.4659C27.3746 12.1986 27.7387 12.0487 28.1182 12.0487C28.4977 12.0487 28.8619 12.1986 29.1313 12.4659L32.4188 15.7534L18.3588 29.8121C18.2505 29.9271 18.1913 30.0798 18.1936 30.2377C18.196 30.3957 18.2598 30.5465 18.3715 30.6582C18.4832 30.7699 18.634 30.8337 18.792 30.8361C18.9499 30.8384 19.1026 30.7792 19.2176 30.6709L33.2776 16.6121L38.3663 21.7009C38.635 21.9695 38.786 22.3338 38.7862 22.7137C38.7865 23.0936 38.6359 23.4581 38.3676 23.7271Z" fill="white"/>
<path d="M25.8041 28.3828C25.6902 28.269 25.5358 28.2051 25.3747 28.2051C25.2137 28.2051 25.0593 28.269 24.9454 28.3828L20.1641 33.1641C20.0501 33.2779 19.986 33.4325 19.9858 33.5936C19.9857 33.7548 20.0496 33.9094 20.1635 34.0234C20.2774 34.1375 20.4319 34.2016 20.5931 34.2017C20.7542 34.2019 20.9088 34.138 21.0229 34.0241L25.8041 29.2428C25.8607 29.1864 25.9055 29.1194 25.9361 29.0456C25.9667 28.9718 25.9825 28.8927 25.9825 28.8128C25.9825 28.733 25.9667 28.6538 25.9361 28.5801C25.9055 28.5063 25.8607 28.4393 25.8041 28.3828Z" fill="white"/>
<path d="M23.8427 32.9199L21.8814 34.8811C21.7674 34.995 21.7032 35.1495 21.7031 35.3107C21.703 35.4719 21.7669 35.6265 21.8808 35.7405C21.9947 35.8546 22.1492 35.9187 22.3103 35.9188C22.4715 35.9189 22.6261 35.855 22.7402 35.7411L24.7014 33.7799C24.8097 33.6649 24.869 33.5122 24.8666 33.3543C24.8643 33.1963 24.8005 33.0455 24.6888 32.9338C24.5771 32.8221 24.4262 32.7583 24.2683 32.7559C24.1103 32.7536 23.9577 32.8128 23.8427 32.9211V32.9199Z" fill="white"/>
<path d="M25.6477 31.1165L25.3902 31.3739C25.331 31.4297 25.2836 31.4967 25.2508 31.5711C25.218 31.6455 25.2005 31.7258 25.1993 31.8071C25.1981 31.8884 25.2132 31.9691 25.2437 32.0445C25.2743 32.1198 25.3197 32.1882 25.3771 32.2457C25.4346 32.3032 25.5031 32.3486 25.5784 32.3792C25.6538 32.4097 25.7345 32.4248 25.8158 32.4236C25.8971 32.4224 25.9773 32.4049 26.0517 32.3721C26.1261 32.3393 26.1932 32.2919 26.2489 32.2327L26.5064 31.9752C26.6148 31.8602 26.674 31.7075 26.6716 31.5496C26.6693 31.3916 26.6055 31.2408 26.4938 31.1291C26.3821 31.0174 26.2313 30.9536 26.0733 30.9512C25.9154 30.9489 25.7627 31.0081 25.6477 31.1165Z" fill="white"/>
<path d="M34.0203 20.1641C33.9063 20.0503 33.7519 19.9863 33.5909 19.9863C33.4299 19.9863 33.2754 20.0503 33.1615 20.1641L30.584 22.7416C30.4702 22.8555 30.4062 23.0099 30.4062 23.171C30.4062 23.332 30.4702 23.4864 30.584 23.6003L32.3028 25.3191C32.4167 25.4329 32.5711 25.4968 32.7321 25.4968C32.8932 25.4968 33.0476 25.4329 33.1615 25.3191L35.739 22.7416C35.8528 22.6277 35.9167 22.4732 35.9167 22.3122C35.9167 22.1512 35.8528 21.9967 35.739 21.8828L34.0203 20.1641ZM32.7315 24.0303L31.8728 23.1716L33.5915 21.4528L34.4503 22.3116L32.7315 24.0303Z" fill="white"/>
<path d="M29.0825 15.3998C29.1623 15.4 29.2414 15.3845 29.3152 15.354C29.389 15.3235 29.4561 15.2788 29.5125 15.2223L29.77 14.9648C29.8839 14.8507 29.9478 14.6961 29.9477 14.535C29.9475 14.3738 29.8834 14.2193 29.7694 14.1054C29.6553 13.9915 29.5007 13.9276 29.3396 13.9277C29.1784 13.9279 29.0239 13.992 28.91 14.106L28.6525 14.3635C28.5674 14.4485 28.5093 14.5568 28.4858 14.6748C28.4623 14.7927 28.4744 14.915 28.5204 15.0261C28.5665 15.1372 28.6445 15.2322 28.7445 15.2989C28.8446 15.3657 28.9622 15.4012 29.0825 15.401V15.3998Z" fill="white"/>
<path d="M16.9412 31.2288L16.6837 31.4863C16.5696 31.6002 16.5055 31.7547 16.5054 31.9158C16.5053 32.077 16.5692 32.2316 16.6831 32.3457C16.7969 32.4597 16.9514 32.5238 17.1126 32.524C17.2738 32.5241 17.4284 32.4602 17.5424 32.3463L17.7999 32.0888C17.8591 32.033 17.9065 31.966 17.9393 31.8916C17.9721 31.8172 17.9896 31.737 17.9908 31.6557C17.992 31.5744 17.9769 31.4936 17.9464 31.4183C17.9158 31.3429 17.8705 31.2745 17.813 31.217C17.7555 31.1595 17.687 31.1141 17.6117 31.0836C17.5363 31.053 17.4556 31.0379 17.3743 31.0391C17.293 31.0403 17.2128 31.0579 17.1384 31.0907C17.064 31.1235 16.9969 31.1708 16.9412 31.23V31.2288Z" fill="white"/>
</g>
<defs>
<clipPath id="clip0_514_224">
<rect width="50" height="50" fill="white"/>
</clipPath>
</defs>
</svg>
